src/22/actions/view-pim-tasks-pending.svg

<svg xmlns="http://www.w3.org/2000/svg" viewBox="0 0 22 22">
  <defs id="defs3051">
    <style type="text/css" id="current-color-scheme">
      .ColorScheme-Text {
        color:#5d656b;
      }
      .ColorScheme-Highlight {
        color:#3daee9;
      }
      </style>
  </defs>
 <path 
     style="fill:currentColor;fill-opacity:1;stroke:none" 
     d="M 3 3 L 3 19 L 13 19 L 14 19 L 14 18 L 13 18 L 4 18 L 4 7 L 18 7 L 18 13 L 18 14 L 19 14 L 19 13 L 19 3 L 17 3 L 17 6 L 15 6 L 15 3 L 7 3 L 7 6 L 5 6 L 5 3 L 3 3 z M 14.292969 9 L 9.7011719 13.591797 L 8.5546875 12.445312 L 7.8476562 13.152344 L 9.6933594 15 L 9.6992188 14.992188 L 9.7070312 15 L 15 9.7070312 L 14.292969 9 z "
     class="ColorScheme-Text"
     />
 <path 
     style="fill:#f47750;fill-opacity:1;stroke:none" 
     d="M 16 14 L 16 17 L 17 17 L 17 14 L 16 14 z M 16 18 L 16 19 L 17 19 L 17 18 L 16 18 z "
     />
</svg>

<svg xmlns="http://www.w3.org/2000/svg" viewBox="0 0 22 22"><defs id="defs3051"><style type="text/css" id="current-color-scheme"></style></defs><path d="M3 3v16h11v-1H4V7h14v7h1V3h-2v3h-2V3H7v3H5V3H3zm11.293 6l-4.592 4.592-1.146-1.147-.707.707L9.693 15l.006-.008.008.008L15 9.707 14.293 9z" fill="currentColor" color="#5d656b"/><path d="M16 14v3h1v-3h-1zm0 4v1h1v-1h-1z" fill="#f47750"/></svg>
